assets/static/svgs/currencies/icon-bitcoin.svg

<svg width="1em" height="1em"  viewBox="0 0 24 24" fill="none" xmlns="http://www.w3.org/2000/svg">
<symbol id="item"
width="1em"
height="1em"
viewBox="0 0 24 24"
fill="none"
>
 <path d="M23.6408 14.9029C22.0379 21.3315 15.5261 25.2438 9.09602 23.6407C2.66859 22.038 -1.24421 15.5266 0.359461 9.09838C1.96163 2.66907 8.47346 -1.24364 14.9016 0.359095C21.3313 1.96183 25.2437 8.47401 23.6408 14.9029Z" fill="#FF9A1F"/> <path d="M16.9713 10.6283C17.2001 9.1572 16.0352 8.36639 14.4424 7.83884L14.9591 5.84609L13.6976 5.54379L13.1945 7.48402C12.8629 7.40456 12.5222 7.3296 12.1838 7.25532L12.6904 5.3023L11.4296 5L10.9125 6.99205C10.638 6.93194 10.3685 6.87252 10.1069 6.80999L10.1084 6.80377L8.36859 6.38607L8.033 7.68163C8.033 7.68163 8.969 7.88789 8.94924 7.90067C9.46018 8.02332 9.55252 8.34841 9.53707 8.60614L8.94852 10.8763C8.98373 10.885 9.02937 10.8974 9.07967 10.9167C9.03763 10.9067 8.99272 10.8957 8.94637 10.885L8.12138 14.0651C8.05886 14.2144 7.90041 14.4382 7.54325 14.3533C7.55583 14.3709 6.62629 14.1332 6.62629 14.1332L6 15.5217L7.6417 15.9152C7.94712 15.9888 8.24642 16.0658 8.54106 16.1384L8.01898 18.1539L9.27909 18.4562L9.79614 16.4621C10.1404 16.5519 10.4745 16.6348 10.8015 16.7129L10.2862 18.6977L11.5478 19L12.0699 16.9883C14.2211 17.3797 15.8387 17.2218 16.5196 15.351C17.0683 13.8447 16.4923 12.9758 15.3605 12.4092C16.1847 12.2265 16.8056 11.7051 16.9713 10.6283ZM14.0888 14.5146C13.699 16.0209 11.0613 15.2066 10.2061 15.0024L10.8989 12.3322C11.754 12.5374 14.4963 12.9437 14.0888 14.5146ZM14.4791 10.6065C14.1233 11.9767 11.9279 11.2805 11.2158 11.1099L11.8439 8.68803C12.556 8.8587 14.8495 9.17723 14.4791 10.6065Z" fill="var(--color--bulma-100)"/> 
</symbol>
</svg>

<svg width="1em" height="1em"    viewBox="0 0 24 24" fill="none" xmlns="http://www.w3.org/2000/svg">
<symbol id="item"
width="1em"
height="1em"
viewBox="0 0 24 24"
fill="none"
>
<path d="M23.64 14.903c-1.602 6.428-8.114 10.34-14.544 8.738C2.669 22.038-1.244 15.527.359 9.098 1.962 2.67 8.473-1.244 14.902.36c6.43 1.603 10.342 8.115 8.739 14.544Z" fill="#FF9A1F"/><path d="M16.971 10.628c.23-1.47-.936-2.262-2.529-2.79l.517-1.992-1.261-.302-.504 1.94c-.331-.08-.672-.154-1.01-.229l.506-1.953L11.43 5l-.518 1.992c-.274-.06-.544-.12-.805-.182l.001-.006-1.74-.418-.335 1.296s.936.206.916.219c.511.122.604.447.588.705l-.588 2.27c.035.009.08.021.13.04l-.133-.031-.825 3.18c-.062.15-.22.373-.578.288.013.018-.917-.22-.917-.22L6 15.522l1.642.393c.305.074.604.15.9.223l-.523 2.016 1.26.302.517-1.994c.344.09.679.173 1.006.25l-.516 1.986 1.262.302.522-2.012c2.151.392 3.769.234 4.45-1.637.548-1.506-.028-2.375-1.16-2.942.825-.183 1.446-.704 1.611-1.78Zm-2.882 3.887c-.39 1.506-3.028.692-3.883.487l.693-2.67c.855.205 3.597.612 3.19 2.183Zm.39-3.909c-.356 1.37-2.551.675-3.263.504l.628-2.422c.712.17 3.006.49 2.635 1.918Z" fill="var(--color--bulma-100)"/>
</symbol>
</svg>
